X: 23740
T: Little Beggarman, The
R: reel
M: 4/4
K: Amixolydian
|:AG|E2A2 AB cd|ef ec d2cd|e2A2 AB cA|B2 G2 G3 F|
E2A2 AB cd|ef ec d2cd|e2 a2 ae ed|c2A2A2:|
|:ef|gf ef gf ef|gf ec d2cd|e2A2 AB cA|B2 G2 G3F|
E2A2 AB cd|ef ec d2cd|e2 a2 ae ed|c2 A2 A2:|

